img/carbon_global-filters.svg

<svg xmlns="http://www.w3.org/2000/svg" width="64" height="64" fill="none"><path fill="#6B6E96" d="M25.8 14c-.8-3.4-4-6-7.8-6s-6.8 2.6-7.8 6H4v4h6.2c.8 3.4 4 6 7.8 6s6.8-2.6 7.8-6H60v-4zM18 20c-2.2 0-4-1.8-4-4s1.8-4 4-4 4 1.8 4 4-1.8 4-4 4m10 20c-3.8 0-6.8 2.6-7.8 6H4v4h16.2c.8 3.4 4 6 7.8 6s6.8-2.6 7.8-6H60v-4H35.8c-.8-3.4-4-6-7.8-6m0 12c-2.2 0-4-1.8-4-4s1.8-4 4-4 4 1.8 4 4-1.8 4-4 4"/><path fill="#F2F2F6" d="M38.2 30c1-3.4 4-6 7.8-6s7 2.6 7.8 6H60v4h-6.2c-1 3.4-4 6-7.8 6s-7-2.6-7.8-6H4v-4z"/></svg>

<svg width="64" height="64" viewBox="0 0 64 64" fill="none" xmlns="http://www.w3.org/2000/svg">
<path d="M25.8 14C25 10.6 21.8 8 18 8C14.2 8 11.2 10.6 10.2 14H4V18H10.2C11 21.4 14.2 24 18 24C21.8 24 24.8 21.4 25.8 18H60V14H25.8ZM18 20C15.8 20 14 18.2 14 16C14 13.8 15.8 12 18 12C20.2 12 22 13.8 22 16C22 18.2 20.2 20 18 20ZM28 40C24.2 40 21.2 42.6 20.2 46H4V50H20.2C21 53.4 24.2 56 28 56C31.8 56 34.8 53.4 35.8 50H60V46H35.8C35 42.6 31.8 40 28 40ZM28 52C25.8 52 24 50.2 24 48C24 45.8 25.8 44 28 44C30.2 44 32 45.8 32 48C32 50.2 30.2 52 28 52Z" fill="#6B6E96"/>
<path d="M38.2 30C39.2 26.6 42.2 24 46 24C49.8 24 53 26.6 53.8 30H60V34H53.8C52.8 37.4 49.8 40 46 40C42.2 40 39 37.4 38.2 34H4V30H38.2Z" fill="#F2F2F6"/>
</svg>
